mobile/24/svg/help-circle-24.svg

<svg width="24" height="24" viewBox="0 0 24 24" fill="none" xmlns="http://www.w3.org/2000/svg">
<path d="M13 16H11.25V17.75H13V16Z" fill="black"/>
<path d="M11.25 13.27V14.25H13V13.27C13 13 13.18 12.75 13.46 12.62C14.57 12.1 15.28 10.98 15.28 9.75998C15.28 8.02999 13.87 6.60999 12.13 6.60999C10.39 6.60999 8.97998 8.01999 8.97998 9.75998H10.73C10.73 8.98999 11.36 8.35999 12.13 8.35999C12.9 8.35999 13.53 8.98999 13.53 9.75998C13.53 10.3 13.21 10.8 12.72 11.03C11.81 11.45 11.25 12.31 11.25 13.27Z" fill="black"/>
<path fill-rule="evenodd" clip-rule="evenodd" d="M12 22C6.49 22 2 17.51 2 12C2 6.49 6.49 2 12 2C17.51 2 22 6.49 22 12C22 17.51 17.51 22 12 22ZM12 3.75C7.45 3.75 3.75 7.45 3.75 12C3.75 16.55 7.45 20.25 12 20.25C16.55 20.25 20.25 16.55 20.25 12C20.25 7.45 16.55 3.75 12 3.75Z" fill="black"/>
</svg>

<svg width="24" height="24" fill="none" xmlns="http://www.w3.org/2000/svg"><path d="M13 16h-1.75v1.75H13V16zM11.25 13.27v.98H13v-.98c0-.27.18-.52.46-.65a3.165 3.165 0 0 0 1.82-2.86 3.15 3.15 0 1 0-6.3 0h1.75c0-.77.63-1.4 1.4-1.4.77 0 1.4.63 1.4 1.4 0 .54-.32 1.04-.81 1.27-.91.42-1.47 1.28-1.47 2.24z" fill="#000"/><path fill-rule="evenodd" clip-rule="evenodd" d="M12 22C6.49 22 2 17.51 2 12S6.49 2 12 2s10 4.49 10 10-4.49 10-10 10zm0-18.25c-4.55 0-8.25 3.7-8.25 8.25s3.7 8.25 8.25 8.25 8.25-3.7 8.25-8.25-3.7-8.25-8.25-8.25z" fill="#000"/></svg>
